X: 20981
U: p=!crescendo(!
U: P=!crescendo)!
M: 2/4
L: 1/8
K: D
V: 1 staves=2
[|\
(A2F)d | (d2c)B | (AB2)A | A2Fz |\
(f2e)d | (dc2)B | (AG2)E | (G2F)z |\
(A2F)d | (d2c)B |
(AB2)A | (A2F)z |\
(f2e)d | (ce2)d | (cB)(A^G) | (^G2F)z |\
.F.Gp.A.B | .c.dPe.f | gg2f | (ed)(cB) |\
(BA2)F | (AG2)E | .F.Gp.A.B | .c.dP.e.f |\
gg2f | (ed)(cB) |
a4 | a4 | "^Fine."d2z2 H|\
z4 | d2z2 | e2z2 | z4 |\
e4 "ad lib."| "_3"z4 | Hg3f | "D.C.alFine."(edcB) |]
V: 2
[|\
(F2D)F | (F2A)G | FG2F | F2Dz |\
(d2c)B | (BA2)G | FE2C | (E2D)z |\
(F2D)F | (F2A)G |
(FG2)F | F2Dz |\
(d2c)B | (Ac2)B | (A^G)(F^E) | (^E2F)z |\
z4 | z4 | A(B/A/) A(B/A/) |
(Ad2)f | (g/f/)(e/d/) (c/B/)(A/G/) | F/G/ Az z/A/ | A(B/A/) A(B/A/) |\
(A=c2)B/A/ | Gzz2 | z=c2B/A/ | Gz zF/E/ |
.D.Ep.F.G | .A.BP.c.d | ee2d | (cB)(AG) |\
(GF2)D | (FE2)C | .D.Ep.F.G | .A.BP.c.d |\
ee2d (cB)(AG) |
d4 | c4 | c4 | "^Fine."d2z2 H|\
z4 | F2z2 | G2z2 | z4 |\
c4 "ad lib."| "_3"z4 | He3d | "^D.C.al Fine."(cBAG) |]


